app/images/dist/phone-incoming.svg

<svg width="32" height="32" viewBox="0 0 32 32" fill="none" xmlns="http://www.w3.org/2000/svg">
<path d="M6.85785 17.0356L10.8727 12.1155C11.2834 11.5875 11.4887 11.3235 11.5963 11.0274C11.6916 10.7655 11.7309 10.4865 11.712 10.2083C11.6906 9.89404 11.5664 9.58351 11.3179 8.96245L10.3703 6.59347C10.0027 5.67439 9.81889 5.21484 9.5018 4.91363C9.22237 4.6482 8.87223 4.46917 8.49345 4.39805C8.0636 4.31733 7.58344 4.43739 6.62311 4.67747L4 5.33333C4 18.6667 13.3329 28 26.6667 28L27.3221 25.3765C27.5623 24.4161 27.6823 23.936 27.6016 23.5061C27.5304 23.1275 27.3515 22.7772 27.086 22.4979C26.7848 22.1807 26.3252 21.9969 25.4061 21.6293L23.2921 20.7836C22.5836 20.5003 22.2293 20.3585 21.8761 20.3477C21.5639 20.3381 21.2539 20.4017 20.9707 20.5335C20.6503 20.6827 20.3805 20.9524 19.8409 21.492L15.7372 25.5481M19.9996 6.66667V12M19.9996 12H25.3329M19.9996 12L27.9996 4" stroke="#DC143C" stroke-width="1.5" stroke-linecap="round" stroke-linejoin="round"/>
</svg>

<svg width="32" height="32" fill="none" xmlns="http://www.w3.org/2000/svg"><path d="m6.858 17.036 4.015-4.92c.41-.528.616-.793.723-1.089.096-.261.135-.54.116-.819-.021-.314-.146-.624-.394-1.246l-.948-2.369c-.367-.919-.551-1.378-.868-1.68a2 2 0 0 0-1.009-.515c-.43-.08-.91.04-1.87.28L4 5.332C4 18.667 13.333 28 26.667 28l.655-2.623c.24-.96.36-1.441.28-1.87a2 2 0 0 0-.516-1.01c-.301-.316-.76-.5-1.68-.868l-2.114-.845c-.708-.284-1.063-.425-1.416-.436a2 2 0 0 0-.905.186c-.32.149-.59.418-1.13.958l-4.104 4.056M20 6.667V12m0 0h5.333M20 12l8-8" stroke="#DC143C" stroke-width="1.5" stroke-linecap="round" stroke-linejoin="round"/></svg>
